T: Dowser's Favorite
M: 4/4
L: 1/8
K: Gmaj
Bc|dgeB dBAB|G2BG ED~D2|D2GB cBAG|FGAB cABc|!dgeB dBAB|G2BG ED~D2|ED~D2 GBdB|cAFA G2 :||!Bc|dB~B2 gdBc|cBcd gdBd|D2GB cBAG|FGAB cABc|!dB~B2 gdBc|cBcd gdBd|GDGB GBdB|cAFA G2:||
